X:21
T:Bay Horse Brawl
T:Peopleton
M:4/4
L:1/8
Q:160
R:Reel
K:EMin
P:A
|:E3F G2 E2 | F2 G2 A4 | G3A B2 B2 | A2 B2 AG F2 |
E3F G2 E2 | F2 G2 A4 | G2 G2 F2 GF | E4 E4 :|
P:B
|:B3c B2 A2 | G2 A2 B2 G2 | A3B A2 G2 | F2 G2 AG F2 |
B3c B2 A2 | G2 A2B4 | G2 G2 F2 GF | E4 E4 :|

